agir/front/components/genericComponents/images/group_general.svg

<svg width="202" height="160" viewBox="0 0 202 160" fill="none" xmlns="http://www.w3.org/2000/svg">
<g clip-path="url(#clip0)">
<path d="M28.1204 94.4357C28.1204 64.6163 54.3458 39.48 90.1314 31.763C95.943 30.513 101.847 29.7412 107.785 29.4556C108.074 29.4411 108.363 29.4267 108.653 29.4163C110.199 29.3524 111.756 29.32 113.324 29.3193C116.051 29.3193 118.746 29.4163 121.409 29.6103C122.886 29.7156 124.351 29.8498 125.804 30.0128C139.929 31.5979 152.928 35.831 163.908 42.033C165.28 42.807 166.619 43.6119 167.927 44.4478C170.321 45.9723 172.632 47.623 174.85 49.3929C189.516 61.087 177.289 86.0479 169.645 101.763C149.015 144.176 160.38 159.552 113.324 159.552C66.2682 159.552 28.1204 130.399 28.1204 94.4357Z" fill="#F2F2F2"/>
<path d="M27.9129 156.379L31.5868 156.378L33.3341 142.207L27.9116 142.208L27.9129 156.379Z" fill="#FFB8B8"/>
<path d="M38.6724 159.789L27.1255 159.79L27.1251 155.329L34.2107 155.328C35.3939 155.328 36.5287 155.798 37.3654 156.635C38.2021 157.471 38.6723 158.606 38.6724 159.789Z" fill="#2F2E41"/>
<path d="M57.4788 156.379L61.1528 156.378L62.9001 142.207L57.4775 142.208L57.4788 156.379Z" fill="#FFB8B8"/>
<path d="M68.2388 159.789L56.692 159.79L56.6916 155.329L63.7771 155.328C64.9603 155.328 66.0951 155.798 66.9318 156.635C67.7685 157.471 68.2387 158.606 68.2388 159.789Z" fill="#2F2E41"/>
<path d="M27.1184 151.159C26.7831 151.159 26.4581 151.043 26.1992 150.83C25.9403 150.617 25.7637 150.32 25.6995 149.991L23.3403 120.346C20.8005 95.2415 25.1478 86.3972 25.192 86.3109L25.2397 86.2175L25.3443 86.2236L45.7362 87.3972L50.0648 101.557L61.507 116.931C63.3173 119.372 64.279 122.339 64.2454 125.379L63.9558 147.794C63.9492 148.156 63.8076 148.503 63.5586 148.766C63.3097 149.03 62.9715 149.191 62.6101 149.218L56.6366 149.633C56.2632 149.66 55.8938 149.541 55.6066 149.301C55.3195 149.06 55.1373 148.718 55.0984 148.345L53.6184 124.009C53.6141 123.984 53.6021 123.961 53.5841 123.942L36.614 108.126C36.5581 108.066 36.4879 108.022 36.41 107.997C36.3322 107.972 36.2493 107.967 36.1691 107.983C36.0889 107.998 36.014 108.034 35.9515 108.087C35.889 108.14 35.8409 108.208 35.8118 108.284L34.1004 149.482C34.1193 149.678 34.0976 149.876 34.0366 150.063C33.9756 150.25 33.8766 150.422 33.7459 150.569C33.613 150.719 33.4504 150.84 33.2683 150.925C33.0861 151.009 32.8885 151.054 32.6879 151.058L27.1451 151.159C27.1362 151.159 27.1272 151.159 27.1184 151.159Z" fill="#2F2E41"/>
<path d="M41.4541 55.6392C46.4441 52.9114 48.278 46.6549 45.5502 41.6648C42.8224 36.6748 36.5658 34.8409 31.5758 37.5687C26.5858 40.2965 24.7519 46.553 27.4797 51.5431C30.2075 56.5331 36.464 58.367 41.4541 55.6392Z" fill="#2F2E41"/>
<path d="M80.746 66.8163C80.3624 66.5998 79.9359 66.47 79.4966 66.4362C79.0574 66.4023 78.616 66.4651 78.2037 66.6203C77.7914 66.7754 77.4181 67.0191 77.1101 67.3341C76.8021 67.6491 76.567 68.0279 76.4212 68.4436L69.5456 68.829L68.7607 73.0644L78.4628 72.3838C79.1774 72.5824 79.9401 72.5119 80.6062 72.1858C81.2724 71.8596 81.7958 71.3005 82.0773 70.6142C82.3587 69.9279 82.3786 69.1623 82.1333 68.4623C81.8879 67.7624 81.3943 67.1767 80.746 66.8163Z" fill="#FFB8B8"/>
<path d="M23.9315 101.763C24.122 101.366 24.2231 100.932 24.2276 100.492C24.2322 100.051 24.1401 99.6148 23.9579 99.2137C23.7756 98.8126 23.5076 98.4564 23.1728 98.1701C22.838 97.8837 22.4444 97.6743 22.0199 97.5565L21.1777 90.7219L16.8994 90.2207L18.2244 99.8559C18.0738 100.582 18.1949 101.338 18.5647 101.981C18.9344 102.624 19.5272 103.109 20.2307 103.345C20.9342 103.58 21.6994 103.549 22.3815 103.257C23.0636 102.966 23.6151 102.434 23.9315 101.763H23.9315Z" fill="#FFB8B8"/>
<path d="M36.0641 57.649C40.4235 57.649 43.9574 54.1151 43.9574 49.7558C43.9574 45.3965 40.4235 41.8625 36.0641 41.8625C31.7048 41.8625 28.1709 45.3965 28.1709 49.7558C28.1709 54.1151 31.7048 57.649 36.0641 57.649Z" fill="#FFB8B8"/>
<path d="M37.6207 90.1864C33.4235 90.1864 29.9064 89.8467 26.4182 88.5996C24.9822 88.0863 24.8288 87.4499 24.6269 86.6538C24.3099 85.4044 24.1361 70.6282 25.7725 65.7243C26.2165 64.4061 27.0249 63.2407 28.104 62.3632C29.1832 61.4857 30.4889 60.9319 31.8699 60.7661C33.428 60.5825 38.0886 59.9237 40.7281 59.5474C42.025 59.3524 43.3465 59.6761 44.4065 60.4484C45.1061 60.9738 45.4694 61.5381 45.4862 62.1258L46.2034 87.109C46.2268 87.831 45.9687 88.5338 45.4836 89.0691C44.9985 89.6043 44.3243 89.93 43.6035 89.9775C41.9907 90.0866 39.8944 90.1864 37.6207 90.1864Z" fill="#F4ED0F"/>
<path d="M16.7427 96.3051C16.5481 96.305 16.3555 96.2657 16.1765 96.1895C15.9974 96.1133 15.8356 96.0017 15.7007 95.8614C15.5658 95.7212 15.4607 95.5552 15.3914 95.3733C15.3222 95.1914 15.2904 94.9975 15.298 94.803L15.5486 83.3446C15.6036 81.9285 16.0264 80.5512 16.7754 79.3481L26.5019 63.7457C26.8067 63.2596 27.2301 62.859 27.7322 62.5815C28.2344 62.304 28.7989 62.1588 29.3726 62.1594C29.9471 62.1595 30.5118 62.3075 31.0125 62.589C31.5132 62.8706 31.933 63.2763 32.2315 63.7671C32.5416 64.2742 32.7123 64.8542 32.7262 65.4484C32.7402 66.0427 32.597 66.6301 32.311 67.1512L22.8763 84.2984L23.5257 94.8227C23.5292 95.0145 23.4944 95.2051 23.4235 95.3833C23.3525 95.5616 23.2469 95.7239 23.1126 95.8609C22.9783 95.9979 22.8181 96.1068 22.6413 96.1813C22.4645 96.2558 22.2746 96.2944 22.0828 96.2947L16.7459 96.3051L16.7427 96.3051Z" fill="#F4ED0F"/>
<path d="M74.3864 74.7712C74.2574 74.9168 74.1002 75.0347 73.9241 75.1176C73.7481 75.2004 73.5571 75.2466 73.3626 75.2531L61.912 75.8604C60.4967 75.9111 59.0926 75.5925 57.8378 74.9359L41.5517 66.4036C41.0432 66.1372 40.6113 65.7453 40.2968 65.265C39.9824 64.7848 39.7959 64.2321 39.7551 63.6595C39.7143 63.0869 39.8205 62.5134 40.0637 61.9934C40.3068 61.4734 40.6788 61.0242 41.1444 60.6884L41.2383 60.8187L41.1444 60.6884C41.6269 60.3412 42.1925 60.1277 42.784 60.0693C43.3755 60.0109 43.972 60.1098 44.513 60.356L62.3179 68.4819L72.7719 67.0462C72.9624 67.0295 73.1543 67.0508 73.3364 67.1088C73.5186 67.1667 73.6875 67.2603 73.8333 67.3839C73.9791 67.5076 74.099 67.6589 74.186 67.8292C74.2729 67.9994 74.3252 68.1853 74.3399 68.3759L74.7495 73.697C74.7515 73.7237 74.7528 73.7502 74.7534 73.7767C74.7628 74.1429 74.6314 74.4988 74.3864 74.7712Z" fill="#F4ED0F"/>
<path d="M30.2172 48.6379L28.1694 43.108L37.3774 40.4429L43.9588 42.4653V48.6379H30.2172Z" fill="#2F2E41"/>
<path d="M39.8971 36.1709C39.7015 33.9522 38.8498 31.842 37.4507 30.1091C36.0515 28.3761 34.1681 27.0989 32.0405 26.4401C29.9128 25.7814 27.6373 25.7709 25.5037 26.4099C23.37 27.049 21.4749 28.3088 20.0598 30.0287C18.124 32.3815 17.2295 35.4082 16.5749 38.3838C15.9202 41.3594 15.4462 44.4134 14.1751 47.1824C12.904 49.9513 10.6629 52.4669 7.70408 53.1938C4.74529 53.9206 1.15174 52.2839 0.467773 49.3149C0.57388 51.3215 1.0806 53.2865 1.95806 55.0942C2.83553 56.9018 4.06599 58.5155 5.57691 59.8402C8.14047 62.0634 12.326 61.2773 14.8497 59.0089C17.3734 56.7405 18.6224 53.4114 19.703 50.1947C20.7836 46.9781 21.849 43.6241 24.1412 41.122C26.4334 38.6199 32.9297 35.9604 35.8737 37.6479C38.1826 38.9712 39.011 38.1299 39.8971 36.1709Z" fill="#2F2E41"/>
<path d="M196.23 101.992H84.3925C82.9866 101.991 81.6388 101.432 80.6447 100.438C79.6506 99.4434 79.0914 98.0956 79.0898 96.6898V39.8068C79.0914 38.4009 79.6506 37.0531 80.6447 36.059C81.6388 35.0649 82.9866 34.5057 84.3925 34.5042H196.23C197.636 34.5057 198.984 35.0649 199.978 36.059C200.972 37.0531 201.531 38.4009 201.533 39.8068V96.6898C201.531 98.0956 200.972 99.4434 199.978 100.438C198.984 101.432 197.636 101.991 196.23 101.992Z" fill="#E6E6E6"/>
<path d="M194.945 98.1357H85.678C84.9537 98.1348 84.2594 97.8468 83.7473 97.3347C83.2352 96.8226 82.9471 96.1282 82.9463 95.404V41.092C82.9471 40.3678 83.2352 39.6734 83.7473 39.1613C84.2594 38.6492 84.9537 38.3612 85.678 38.3604H194.945C195.669 38.3612 196.363 38.6492 196.875 39.1613C197.387 39.6734 197.675 40.3678 197.676 41.092V95.404C197.675 96.1282 197.387 96.8226 196.875 97.3347C196.363 97.8468 195.669 98.1348 194.945 98.1357Z" fill="white"/>
<path d="M183.054 90.2623H97.5685C96.8867 90.2623 96.2327 89.9914 95.7506 89.5093C95.2684 89.0271 94.9976 88.3732 94.9976 87.6913C94.9976 87.0095 95.2684 86.3555 95.7506 85.8734C96.2327 85.3912 96.8867 85.1204 97.5685 85.1204H183.054C183.736 85.1204 184.389 85.3912 184.872 85.8734C185.354 86.3555 185.625 87.0095 185.625 87.6913C185.625 88.3732 185.354 89.0271 184.872 89.5093C184.389 89.9914 183.736 90.2623 183.054 90.2623Z" fill="#E6E6E6"/>
<path d="M183.054 79.3356H97.5685C96.8867 79.3356 96.2327 79.0647 95.7506 78.5825C95.2684 78.1004 94.9976 77.4464 94.9976 76.7646C94.9976 76.0827 95.2684 75.4288 95.7506 74.9466C96.2327 74.4645 96.8867 74.1936 97.5685 74.1936H183.054C183.736 74.1936 184.389 74.4645 184.872 74.9466C185.354 75.4288 185.625 76.0827 185.625 76.7646C185.625 77.4464 185.354 78.1004 184.872 78.5825C184.389 79.0647 183.736 79.3356 183.054 79.3356Z" fill="#E6E6E6"/>
<path d="M116.208 66.6821H97.5686C96.8443 66.6813 96.15 66.3932 95.6379 65.8811C95.1258 65.369 94.8377 64.6746 94.8369 63.9504V50.3708C94.8377 49.6466 95.1258 48.9523 95.6379 48.4401C96.15 47.928 96.8443 47.64 97.5686 47.6392H116.208C116.932 47.64 117.627 47.928 118.139 48.4401C118.651 48.9523 118.939 49.6466 118.94 50.3708V63.9504C118.939 64.6746 118.651 65.369 118.139 65.8811C117.627 66.3932 116.932 66.6813 116.208 66.6821Z" fill="#F4ED0F"/>
<path d="M183.149 65.1952H139.763C139.081 65.1952 138.428 64.9243 137.945 64.4421C137.463 63.96 137.192 63.3061 137.192 62.6242C137.192 61.9423 137.463 61.2884 137.945 60.8062C138.428 60.3241 139.081 60.0532 139.763 60.0532H183.149C183.831 60.0532 184.484 60.3241 184.967 60.8062C185.449 61.2884 185.72 61.9423 185.72 62.6242C185.72 63.3061 185.449 63.96 184.967 64.4421C184.484 64.9243 183.831 65.1952 183.149 65.1952Z" fill="#CCCCCC"/>
<path d="M165.152 54.2684H139.763C139.081 54.2684 138.428 53.9976 137.945 53.5154C137.463 53.0332 137.192 52.3793 137.192 51.6974C137.192 51.0156 137.463 50.3616 137.945 49.8795C138.428 49.3973 139.081 49.1265 139.763 49.1265H165.152C165.834 49.1265 166.488 49.3973 166.97 49.8795C167.452 50.3616 167.723 51.0156 167.723 51.6974C167.723 52.3793 167.452 53.0332 166.97 53.5154C166.488 53.9976 165.834 54.2684 165.152 54.2684Z" fill="#CCCCCC"/>
<path d="M80.9131 160H17.2813C17.1961 160 17.1144 159.966 17.0541 159.906C16.9938 159.846 16.96 159.764 16.96 159.679C16.96 159.593 16.9938 159.512 17.0541 159.451C17.1144 159.391 17.1961 159.357 17.2813 159.357H80.9131C80.9984 159.357 81.0801 159.391 81.1404 159.451C81.2006 159.512 81.2345 159.593 81.2345 159.679C81.2345 159.764 81.2006 159.846 81.1404 159.906C81.0801 159.966 80.9984 160 80.9131 160Z" fill="#CCCCCC"/>
</g>
<defs>
<clipPath id="clip0">
<rect width="201.047" height="160" fill="white" transform="translate(0.476562)"/>
</clipPath>
</defs>
</svg>

<svg width="202" height="160" fill="none" xmlns="http://www.w3.org/2000/svg"><g clip-path="url(#a)"><path d="M28.12 94.436c0-29.82 26.226-54.956 62.011-62.673a108.811 108.811 0 0 1 18.522-2.347c1.546-.064 3.103-.096 4.671-.097 2.727 0 5.422.097 8.085.291 1.477.106 2.942.24 4.395.403 14.125 1.585 27.124 5.818 38.104 12.02a85.202 85.202 0 0 1 4.019 2.415 79.952 79.952 0 0 1 6.923 4.945c14.666 11.694 2.439 36.655-5.205 52.37-20.63 42.413-9.265 57.789-56.321 57.789S28.12 130.399 28.12 94.436Z" fill="#F2F2F2"/><path d="m27.913 156.379 3.674-.001 1.747-14.171-5.422.001v14.171Z" fill="#FFB8B8"/><path d="m38.672 159.789-11.546.001v-4.461l7.085-.001a4.46 4.46 0 0 1 4.461 4.461Z" fill="#2F2E41"/><path d="m57.479 156.379 3.674-.001 1.747-14.171-5.422.001v14.171Z" fill="#FFB8B8"/><path d="m68.239 159.789-11.547.001v-4.461l7.085-.001a4.46 4.46 0 0 1 4.462 4.461Zm-41.121-8.63a1.446 1.446 0 0 1-1.418-1.168l-2.36-29.645c-2.54-25.105 1.808-33.949 1.852-34.035l.048-.094.104.007 20.392 1.173 4.329 14.16 11.442 15.374a13.923 13.923 0 0 1 2.738 8.448l-.29 22.415a1.453 1.453 0 0 1-1.345 1.424l-5.973.415a1.444 1.444 0 0 1-1.539-1.288l-1.48-24.336a.13.13 0 0 0-.034-.067l-16.97-15.816a.477.477 0 0 0-.445-.143.487.487 0 0 0-.357.301L34.1 149.482a1.431 1.431 0 0 1-.832 1.443c-.182.084-.38.129-.58.133l-5.543.101h-.027ZM41.454 55.64c4.99-2.729 6.824-8.985 4.096-13.975-2.728-4.99-8.984-6.824-13.974-4.096-4.99 2.727-6.824 8.984-4.096 13.974 2.727 4.99 8.984 6.824 13.974 4.096Z" fill="#2F2E41"/><path d="M80.746 66.816a3.012 3.012 0 0 0-4.325 1.628l-6.875.385-.785 4.235 9.702-.68a3.03 3.03 0 0 0 2.283-5.568Zm-56.815 34.947a3.01 3.01 0 0 0-.758-3.593 3.013 3.013 0 0 0-1.153-.614l-.842-6.834-4.279-.501 1.325 9.635a3.029 3.029 0 0 0 5.707 1.907Zm12.133-44.114a7.893 7.893 0 1 0 0-15.786 7.893 7.893 0 0 0 0 15.786Z" fill="#FFB8B8"/><path d="M37.62 90.186c-4.197 0-7.714-.34-11.202-1.586-1.436-.514-1.59-1.15-1.791-1.946-.317-1.25-.49-16.026 1.146-20.93a7.36 7.36 0 0 1 6.097-4.958c1.558-.183 6.219-.842 8.858-1.219a4.987 4.987 0 0 1 3.678.901c.7.526 1.063 1.09 1.08 1.678l.717 24.983a2.785 2.785 0 0 1-2.6 2.869 89.951 89.951 0 0 1-5.982.208Z" fill="#F4ED0F"/><path d="M16.743 96.305a1.448 1.448 0 0 1-1.445-1.502l.25-11.458a8.161 8.161 0 0 1 1.227-3.997l9.727-15.602a3.385 3.385 0 0 1 2.87-1.587 3.347 3.347 0 0 1 2.86 1.608 3.374 3.374 0 0 1 .079 3.384l-9.435 17.147.65 10.525a1.445 1.445 0 0 1-1.443 1.472l-5.337.01h-.003Zm57.643-21.534a1.433 1.433 0 0 1-1.023.482l-11.451.607a8.158 8.158 0 0 1-4.074-.924l-16.286-8.532a3.368 3.368 0 0 1-.408-5.716l.094.13-.094-.13a3.375 3.375 0 0 1 3.369-.332l17.805 8.126 10.454-1.436a1.445 1.445 0 0 1 1.568 1.33l.41 5.321c.001.027.003.053.003.08.01.366-.122.722-.367.994Z" fill="#F4ED0F"/><path d="m30.217 48.638-2.048-5.53 9.208-2.665 6.582 2.022v6.173H30.217Z" fill="#2F2E41"/><path d="M39.897 36.17a11.218 11.218 0 0 0-19.837-6.14c-1.936 2.353-2.83 5.38-3.485 8.355-.655 2.975-1.129 6.03-2.4 8.798-1.271 2.77-3.512 5.285-6.47 6.012-2.96.727-6.553-.91-7.237-3.88A15.055 15.055 0 0 0 5.577 59.84c2.563 2.223 6.749 1.437 9.273-.831 2.523-2.269 3.772-5.598 4.853-8.814 1.08-3.217 2.146-6.57 4.438-9.073 2.292-2.502 8.789-5.162 11.733-3.474 2.309 1.323 3.137.482 4.023-1.477Z" fill="#2F2E41"/><path d="M196.23 101.992H84.393a5.306 5.306 0 0 1-5.303-5.302V39.807a5.309 5.309 0 0 1 5.302-5.303H196.23a5.308 5.308 0 0 1 5.303 5.303V96.69a5.306 5.306 0 0 1-5.303 5.302Z" fill="#E6E6E6"/><path d="M194.945 98.136H85.678a2.735 2.735 0 0 1-2.732-2.732V41.092a2.735 2.735 0 0 1 2.732-2.732h109.267a2.733 2.733 0 0 1 2.731 2.732v54.312a2.736 2.736 0 0 1-2.731 2.732Z" fill="#fff"/><path d="M183.054 90.262H97.568a2.571 2.571 0 0 1 0-5.142h85.486a2.572 2.572 0 0 1 0 5.142Zm0-10.926H97.568a2.57 2.57 0 0 1 0-5.142h85.486a2.573 2.573 0 0 1 1.818 4.388 2.572 2.572 0 0 1-1.818.754Z" fill="#E6E6E6"/><path d="M116.208 66.682h-18.64a2.735 2.735 0 0 1-2.731-2.732V50.37a2.735 2.735 0 0 1 2.732-2.73h18.639a2.736 2.736 0 0 1 2.732 2.73v13.58a2.736 2.736 0 0 1-2.732 2.732Z" fill="#F4ED0F"/><path d="M183.149 65.195h-43.386a2.572 2.572 0 0 1 0-5.142h43.386a2.573 2.573 0 0 1 1.818 4.39 2.572 2.572 0 0 1-1.818.752Zm-17.997-10.927h-25.389a2.572 2.572 0 0 1 0-5.142h25.389a2.57 2.57 0 1 1 0 5.142ZM80.913 160H17.281a.322.322 0 0 1-.227-.549.322.322 0 0 1 .227-.094h63.632a.322.322 0 0 1 .227.549.322.322 0 0 1-.227.094Z" fill="#CCC"/></g><defs><clipPath id="a"><path fill="#fff" transform="translate(.477)" d="M0 0h201.047v160H0z"/></clipPath></defs></svg>
